static/logos/userInterviews-wordmark-color.svg

<svg width="140" height="18" viewBox="0 0 140 18" fill="none" xmlns="http://www.w3.org/2000/svg">
<g clip-path="url(#clip0_1_487)">
<path d="M8.75 4.375C8.75 1.95875 10.7088 0 13.125 0C15.5412 0 17.5 1.95875 17.5 4.375C17.5 6.79122 15.5412 8.75 13.125 8.75C10.7088 8.75 8.75 6.79122 8.75 4.375Z" fill="#158D71"/>
<path d="M0 8.75H8.75V13.125C8.75 15.5412 6.79122 17.5 4.375 17.5C1.95876 17.5 0 15.5412 0 13.125V8.75Z" fill="#158D71"/>
<path d="M8.75 13.125C8.75 10.7088 10.7088 8.75 13.125 8.75C15.5412 8.75 17.5 10.7088 17.5 13.125V17.5H8.75V13.125Z" fill="#011936"/>
<path d="M0 4.375C0 1.95875 1.95876 0 4.375 0C6.79122 0 8.75 1.95875 8.75 4.375C8.75 6.79122 6.79122 8.75 4.375 8.75C1.95876 8.75 0 6.79122 0 4.375Z" fill="#011936"/>
<path d="M29.9792 11.0375C29.9617 12.805 28.5967 13.4875 27.4592 13.4875C26.3217 13.4875 25.4992 12.6125 25.4992 11.23V6.53998H23.9767V11.265C23.9592 13.5575 25.2192 14.9225 27.2667 14.9225C28.1767 14.9225 29.4892 14.4675 29.9792 13.435V14.7125H31.5017V6.53998H29.9792V11.0375Z" fill="black"/>
<path d="M36.4591 14.9226C38.1566 14.9226 39.6266 13.9601 39.6266 12.4376C39.6266 11.5101 39.1891 10.4951 37.4916 10.0751L36.2841 9.77758C35.7591 9.65508 35.2341 9.35758 35.2341 8.79758C35.2341 8.16758 35.7591 7.66008 36.5466 7.66008C37.1941 7.66008 37.8416 8.08008 37.8591 8.71008H39.3291C39.3291 7.06508 37.8941 6.33008 36.5116 6.33008C34.8666 6.33008 33.7116 7.39758 33.7116 8.74508C33.7116 10.0576 34.4991 10.7226 35.8641 11.0901L36.9841 11.3526C37.6316 11.4926 38.1041 11.8076 38.1041 12.4201C38.1041 13.0851 37.4916 13.5926 36.4591 13.5926C35.4616 13.5926 34.8491 13.0151 34.8316 12.3151H33.4141C33.4841 13.9951 34.9891 14.9226 36.4591 14.9226Z" fill="black"/>
<path d="M49.2912 10.6001C49.2912 8.01008 47.5587 6.33008 45.2312 6.33008C42.9037 6.33008 41.0312 8.01008 41.0312 10.6001C41.0312 13.1901 42.9037 14.9226 45.2312 14.9226C46.8062 14.9226 48.2762 14.1526 48.9762 12.7351L47.6637 12.2101C47.1912 13.0326 46.2812 13.4876 45.2837 13.4876C43.8838 13.4876 42.8337 12.7351 42.6062 11.2826H49.2562C49.2737 11.0551 49.2912 10.8276 49.2912 10.6001ZM42.6237 9.97008C42.8687 8.50008 43.8487 7.76508 45.2312 7.76508C46.5787 7.76508 47.5762 8.57008 47.7687 9.97008H42.6237Z" fill="black"/>
<path d="M55.1138 6.33008C54.0288 6.33008 53.2412 6.96008 52.8212 8.39508V6.54008H51.2812V14.7126H52.8212V11.7201C52.8212 9.56758 53.4688 7.80008 55.0963 7.80008C55.4113 7.80008 55.8488 7.87008 56.2863 8.08008L56.5313 6.64508C56.2863 6.48758 55.6913 6.33008 55.1138 6.33008Z" fill="black"/>
<path d="M63.2941 4.54508C63.8891 4.54508 64.3791 4.10758 64.3791 3.53008C64.3791 2.95258 63.8891 2.51508 63.2941 2.51508C62.7166 2.51508 62.2266 2.95258 62.2266 3.53008C62.2266 4.10758 62.7166 4.54508 63.2941 4.54508ZM64.0641 14.7126V6.54006H62.5416V14.7126H64.0641Z" fill="black"/>
<path d="M70.8522 6.33008C69.9597 6.33008 68.6297 6.78508 68.1397 7.78258V6.54008H66.6172V14.7126H68.1397V10.2851C68.1397 8.51758 69.5047 7.83508 70.6422 7.83508C71.7797 7.83508 72.6197 8.71008 72.6197 10.0751V14.7126H74.1422V9.98758C74.1597 7.69508 72.8822 6.33008 70.8522 6.33008Z" fill="black"/>
<path d="M78.6487 6.54012V3.46014H77.1262V6.54012H75.6562V7.85262H77.1262V14.7126H78.6487V7.85262H80.4162V6.54012H78.6487Z" fill="black"/>
<path d="M89.5803 10.6001C89.5803 8.01008 87.8478 6.33008 85.5203 6.33008C83.1928 6.33008 81.3203 8.01008 81.3203 10.6001C81.3203 13.1901 83.1928 14.9226 85.5203 14.9226C87.0953 14.9226 88.5653 14.1526 89.2653 12.7351L87.9528 12.2101C87.4803 13.0326 86.5703 13.4876 85.5728 13.4876C84.1728 13.4876 83.1228 12.7351 82.8953 11.2826H89.5453C89.5628 11.0551 89.5803 10.8276 89.5803 10.6001ZM82.9128 9.97008C83.1578 8.50008 84.1378 7.76508 85.5203 7.76508C86.8678 7.76508 87.8653 8.57008 88.0578 9.97008H82.9128Z" fill="black"/>
<path d="M95.395 6.33008C94.31 6.33008 93.5225 6.96008 93.1025 8.39508V6.54008H91.5625V14.7126H93.1025V11.7201C93.1025 9.56758 93.75 7.80008 95.3775 7.80008C95.6925 7.80008 96.13 7.87008 96.5675 8.08008L96.8125 6.64508C96.5675 6.48758 95.9725 6.33008 95.395 6.33008Z" fill="black"/>
<path d="M101.413 12.77L98.8931 6.53998H97.2656L100.661 14.7125H102.148L105.561 6.53998H103.916L101.413 12.77Z" fill="black"/>
<path d="M107.818 4.54508C108.413 4.54508 108.903 4.10758 108.903 3.53008C108.903 2.95258 108.413 2.51508 107.818 2.51508C107.24 2.51508 106.75 2.95258 106.75 3.53008C106.75 4.10758 107.24 4.54508 107.818 4.54508ZM108.588 14.7126V6.54006H107.065V14.7126H108.588Z" fill="black"/>
<path d="M118.862 10.6001C118.862 8.01008 117.129 6.33008 114.802 6.33008C112.474 6.33008 110.602 8.01008 110.602 10.6001C110.602 13.1901 112.474 14.9226 114.802 14.9226C116.377 14.9226 117.847 14.1526 118.547 12.7351L117.234 12.2101C116.762 13.0326 115.852 13.4876 114.854 13.4876C113.454 13.4876 112.404 12.7351 112.177 11.2826H118.827C118.844 11.0551 118.862 10.8276 118.862 10.6001ZM112.194 9.97008C112.439 8.50008 113.419 7.76508 114.802 7.76508C116.149 7.76508 117.147 8.57008 117.339 9.97008H112.194Z" fill="black"/>
<path d="M129.046 12.35L126.946 6.53998H125.458L123.376 12.35L121.293 6.53998H119.648L122.763 14.7125H124.023L126.193 8.63998L128.451 14.7125H129.728L132.773 6.53998H131.128L129.046 12.35Z" fill="black"/>
<path d="M136.561 14.9226C138.258 14.9226 139.728 13.9601 139.728 12.4376C139.728 11.5101 139.291 10.4951 137.593 10.0751L136.386 9.77758C135.861 9.65508 135.336 9.35758 135.336 8.79758C135.336 8.16758 135.861 7.66008 136.648 7.66008C137.296 7.66008 137.943 8.08008 137.961 8.71008H139.431C139.431 7.06508 137.996 6.33008 136.613 6.33008C134.968 6.33008 133.813 7.39758 133.813 8.74508C133.813 10.0576 134.601 10.7226 135.966 11.0901L137.086 11.3526C137.733 11.4926 138.206 11.8076 138.206 12.4201C138.206 13.0851 137.593 13.5926 136.561 13.5926C135.563 13.5926 134.951 13.0151 134.933 12.3151H133.516C133.586 13.9951 135.091 14.9226 136.561 14.9226Z" fill="black"/>
</g>
<defs>
<clipPath id="clip0_1_487">
<rect width="140" height="17.5" fill="white"/>
</clipPath>
</defs>
</svg>

<svg xmlns="http://www.w3.org/2000/svg" width="497.778" height="64" fill="none" viewBox="0 0 140 18"><g clip-path="url(#a)"><path fill="#158D71" d="M8.75 4.375a4.375 4.375 0 1 1 8.75 0 4.375 4.375 0 0 1-8.75 0ZM0 8.75h8.75v4.375a4.375 4.375 0 0 1-8.75 0V8.75Z"/><path fill="#011936" d="M8.75 13.125a4.375 4.375 0 0 1 8.75 0V17.5H8.75v-4.375ZM0 4.375a4.375 4.375 0 1 1 8.75 0 4.375 4.375 0 0 1-8.75 0Z"/><path fill="#000" d="M29.98 11.037c-.018 1.768-1.383 2.45-2.52 2.45-1.138 0-1.96-.874-1.96-2.257V6.54h-1.523v4.725c-.018 2.292 1.242 3.657 3.29 3.657.91 0 2.222-.455 2.712-1.487v1.277h1.523V6.54h-1.523v4.497ZM36.46 14.923c1.697 0 3.167-.963 3.167-2.485 0-.928-.438-1.943-2.135-2.363l-1.208-.297c-.525-.123-1.05-.42-1.05-.98 0-.63.525-1.138 1.313-1.138.647 0 1.295.42 1.312 1.05h1.47c0-1.645-1.435-2.38-2.817-2.38-1.645 0-2.8 1.068-2.8 2.415 0 1.313.787 1.978 2.152 2.345l1.12.263c.648.14 1.12.455 1.12 1.067 0 .665-.612 1.173-1.645 1.173-.997 0-1.61-.578-1.627-1.278h-1.418c.07 1.68 1.575 2.608 3.045 2.608ZM49.291 10.6c0-2.59-1.732-4.27-4.06-4.27-2.327 0-4.2 1.68-4.2 4.27s1.873 4.323 4.2 4.323c1.575 0 3.045-.77 3.745-2.188l-1.312-.525c-.473.823-1.383 1.278-2.38 1.278-1.4 0-2.45-.753-2.678-2.205h6.65c.018-.228.035-.455.035-.683Zm-6.667-.63c.245-1.47 1.225-2.205 2.607-2.205 1.348 0 2.345.805 2.538 2.205h-5.145ZM55.114 6.33c-1.085 0-1.873.63-2.293 2.065V6.54h-1.54v8.173h1.54V11.72c0-2.152.648-3.92 2.275-3.92.315 0 .753.07 1.19.28l.245-1.435c-.245-.157-.84-.315-1.417-.315ZM63.294 4.545c.595 0 1.085-.437 1.085-1.015 0-.577-.49-1.015-1.085-1.015-.577 0-1.067.438-1.067 1.015 0 .578.49 1.015 1.067 1.015Zm.77 10.168V6.54h-1.522v8.173h1.522ZM70.852 6.33c-.892 0-2.222.455-2.712 1.453V6.54h-1.523v8.173h1.523v-4.428c0-1.767 1.365-2.45 2.502-2.45 1.138 0 1.978.875 1.978 2.24v4.638h1.522V9.988c.018-2.293-1.26-3.658-3.29-3.658ZM78.649 6.54V3.46h-1.523v3.08h-1.47v1.313h1.47v6.86h1.523v-6.86h1.767V6.54H78.65ZM89.58 10.6c0-2.59-1.732-4.27-4.06-4.27-2.327 0-4.2 1.68-4.2 4.27s1.873 4.323 4.2 4.323c1.575 0 3.045-.77 3.745-2.188l-1.312-.525c-.473.823-1.383 1.278-2.38 1.278-1.4 0-2.45-.753-2.678-2.205h6.65c.018-.228.035-.455.035-.683Zm-6.667-.63c.245-1.47 1.225-2.205 2.607-2.205 1.348 0 2.345.805 2.538 2.205h-5.145ZM95.395 6.33c-1.085 0-1.873.63-2.292 2.065V6.54h-1.54v8.173h1.54V11.72c0-2.152.647-3.92 2.275-3.92.314 0 .752.07 1.19.28l.245-1.435c-.246-.157-.84-.315-1.418-.315ZM101.413 12.77l-2.52-6.23h-1.627l3.395 8.172h1.487l3.413-8.172h-1.645l-2.503 6.23ZM107.818 4.545c.595 0 1.085-.437 1.085-1.015 0-.577-.49-1.015-1.085-1.015-.578 0-1.068.438-1.068 1.015 0 .578.49 1.015 1.068 1.015Zm.77 10.168V6.54h-1.523v8.173h1.523ZM118.862 10.6c0-2.59-1.733-4.27-4.06-4.27-2.328 0-4.2 1.68-4.2 4.27s1.872 4.323 4.2 4.323c1.575 0 3.045-.77 3.745-2.188l-1.313-.525c-.472.823-1.382 1.278-2.38 1.278-1.4 0-2.45-.753-2.677-2.205h6.65c.017-.228.035-.455.035-.683Zm-6.668-.63c.245-1.47 1.225-2.205 2.608-2.205 1.347 0 2.345.805 2.537 2.205h-5.145ZM129.046 12.35l-2.1-5.81h-1.488l-2.082 5.81-2.083-5.81h-1.645l3.115 8.172h1.26l2.17-6.072 2.258 6.072h1.277l3.045-8.172h-1.645l-2.082 5.81ZM136.561 14.923c1.697 0 3.167-.963 3.167-2.485 0-.928-.437-1.943-2.135-2.363l-1.207-.297c-.525-.123-1.05-.42-1.05-.98 0-.63.525-1.138 1.312-1.138.648 0 1.295.42 1.313 1.05h1.47c0-1.645-1.435-2.38-2.818-2.38-1.645 0-2.8 1.068-2.8 2.415 0 1.313.788 1.978 2.153 2.345l1.12.263c.647.14 1.12.455 1.12 1.067 0 .665-.613 1.173-1.645 1.173-.998 0-1.61-.578-1.628-1.278h-1.417c.07 1.68 1.575 2.608 3.045 2.608Z"/></g><defs><clipPath id="a"><path fill="#fff" d="M0 0h140v17.5H0z"/></clipPath></defs></svg>
